X:1
T:James Gibb editions
T:Sancta et immaculata - Gabrieli
T:#
%%score [ 1 2 3 4 ]
L:1/8
Q:1/4=96
M:4/4
K:Eb
V:1 treble nm="Soprano" snm="S"
V:2 treble nm="Alto" snm="A"
V:3 treble-8 nm="Tenor" snm="T"
V:4 bass nm="Bass" snm="B"
V:1
"^Sancta et immaculata""^Andrea Gabrieli\n(c. 1510-1586)" z8 | z8 | B8 | E4 B4- | B2 B2 B2 F2 | %5
w: ||San-|cta et|* im- ma- cu-|
 G4 F2 B2 |[M:4/4] B2 E2 (G3 A | B4) z4 | B8 | E4 B4- | B2 B2 B2 F2 | G4 F4 | =A2 B4 A2 | B8 | z8 | %15
w: la- ta vir-|gi- ni- tas, *||san-|cta et|* im- ma- cu-|la- ta|vir- gi- ni-|tas,||
 z8 | z4 z2 B2 | B2 B2 c4- | c2 c2 B4 | z2 e3 e d2 | c2 c2 B4- | B4 z2 B2- | BB A2 G2 G2 | %23
w: |qui-|bus te lau\-|* di- bus|ef- fe- ram|ne- sci- o,|* ef\-|* fe- ram ne- sci-|
 F2 B2 B2 B2 | c6 c2 | B2 B4 B2 | (e3 d c2) B2- | B2 =A2 B2 G2- | GG F4 E2- | E2 D2 E2 G2 | %30
w: o, qui- bus te|lau- di-|bus ef- fe-|ram * * ne\-|* sci- o, ef\-|* fe- ram ne\-|* sci- o, qui-|
 G2 A2 B2 B2 | c3 c B2 e2 | c2 d2 e4 | z4 z2 G2 | E2 F2 G4- | G4 z2 B2 | B2 c2 d2 d2 | e3 e d2 f2 | %38
w: a quem coe- li|ca- pe- re non|po- te- rant,|non|po- te- rant,|* qui-|a quem coe- li|ca- pe- re non|
 e2 c2 B4 | z2 e4 d2 | c2 B2 c2 e2- | e2 d2 (cB B2- | B2 =A2) B4 | z4 z2 B2- | B2 A2 G2 F2 | %45
w: po- te- rant|tu- o|gre- mi- o con\-|* tu- li\- * *|* * sti,|tu\-|* o gre- mi-|
 G4 z4 | z4 z2 e2- | e2 d2 (cB B2- | B2 A2) B4 | z8 | z2 B4 A2 | G2 F2 G4 | B4 A2 (G2- | %53
w: o|con\-|* tu- li\- * *|* * sti,||tu- o|gre- mi- o|con- tu- li\-|
 GF F4 E2) | F2 c4 B2 | A2 G2 A4 | z4 z2 e2- | e2 d2 c4 |[M:2/2] B4 c4 | z4 z2 c2- | c2 B2 A2 G2 | %61
w: |sti, tu- o|gre- mi- o,|tu\-|* o gre-|mi- o,|tu\-|* o gre- mi-|
[Q:1/4=95] A2[Q:1/4=92] c4[Q:1/4=89] B2 |[Q:1/4=85] A8 |[Q:1/4=82] G8 |] %64
w: o con- tu-|li-|sti.|
V:2
 E8 | B,4 E4- | E2 E2 E2 B,2 | C4 B,4 | D2 E4 D2 | E2 (B,C DE F2) |[M:4/4] (G3 F ED/C/ B,C | %7
w: San-|cta et|* im- ma- cu-|la- ta|vir- gi- ni-|tas, vir\- * * * *|gi\- * * * * * *|
 D2) D2 B,2 E2- | E2 B,2 E2 D2 | C2 E2 (D3 E | F2) E2 z2 B,2- | B,2 (E3 D/C/ DE | F4) F4 | D4 z4 | %14
w: * ni- tas, san\-|* cta et im-|ma- cu- la\- *|* ta vir\-|* gi\- * * * *|* ni-|tas,|
 z8 | z4 z2 F2 | F2 F2 (G3 F | E2) D2 C2 A2- | AA G2 F2 F2 | E4 z2 F2 | F2 F2 G4- | G2 G2 F4- | %22
w: |qui-|bus te lau\- *|* di- bus ef\-|* fe- ram ne- sci-|o, qui-|bus te lau\-|* di- bus,|
 F4 z4 | z8 | z2 F2 F2 F2 | (G3 F E2) D2 | C2 E3 E B,2 | C2 C2 B,2 B,2- | B,B, B,2 (CB,G,A, | %29
w: ||qui- bus te|lau\- * * di-|bus ef- fe- ram|ne- sci- o, ef\-|* fe- ram ne\- * * *|
 B,2) B,2 B,4 | z4 z2 E2 | E2 F2 G2 G2 | A3 A G2 B2 | G2 A2 B4 | z4 z2 E2 | D2 E2 F4 | z4 z2 B2 | %37
w: * sci- o,|qui-|a quem coe- li|ca- pe- re non|po- te- rant,|non|po- te- rant,|non|
 G2 A2 B2 B2- | B2 A2 G2 F2 | G8 | (E3 D F2) G2 | G2 F2 G2 G2 | F4 D2 G2- | G2 F2 E2 D2 | %44
w: po- te- rant tu\-|* o gre- mi-|o|con\- * * tu-|li- sti, con- tu-|li- sti, tu\-|* o gre- mi-|
 E2 E4 D2 | C2 B,2 z4 | (G3 F/E/ D2) C2 | (F4 E3 D | C4 F4- | F4 z2 F2- | F2 E2 D2 C2 | %51
w: o con- tu-|li- sti,|con\- * * * tu-|li\- * *|* sti,|* tu\-|* o gre- mi-|
 (D3 C B,4- | B,4) E2 D2 | EDCB, C4) | (C3 D E4) | z2 C4 F2 | G2 F2 E4 | z4 A4- | %58
w: o * *|* con- tu-|li\- * * * *|sti, * *|tu- o|gre- mi- o,|con\-|
[M:2/2] A2 G2 (FE E2- | E2 D2) E4- | E8 | E8 | E8 | E8 |] %64
w: * tu- li\- * *|* * sti.|||||
V:3
 z8 | z8 | z8 | z8 | B8 | E4 B4- |[M:4/4][K:treble-8] B2 B2 B2 E2 | F4 E2 G2 | (G6 FG | %9
w: ||||San-|cta et|* im- ma- cu-|la- ta vir-|gi\- * *|
 AG GF/E/ FG F2- | F2) G2 B4 | z2 B2 B2 B2 | c6 c2 | B2 B4 B2 | (e3 d c2) B2- | B2 A2 B2 d2 | %16
w: |* ni- tas,|qui- bus te|lau- di-|bus ef- fe-|ram * * ne\-|* sci- o, qui-|
 d2 c2 e2 d2 | B4 z2 f2- | ff e2 d2 d2 | c4 z4 | z8 | e3 e _d4 | (c3 B/A/ c2) (B2- | BAGF) E4 | %24
w: bus te lau- di-|bus ef-|* fe- ram ne- sci-|o,||ef- fe- ram|ne\- * * * sci\-|* * * * o,|
 z8 | z2 B2 B2 B2 | (c3 B A2) G2 | F4 G3 G | E2 (FG AG GF/E/ | F2) F2 E2 e2 | e2 c2 (e3 d | %31
w: |qui- bus te|lau\- * * di-|bus ef- fe-|ram ne\- * * * * * *|* sci- o, qui-|a quem coe\- *|
 cB A2) e4 | f2 f2 e2 (gf | ed c2) e2 d2 | c4 z2 B2 | B2 c2 d2 d2 | e3 e d2 f2 | e2 c2 B2 d2 | %38
w: * * * li|ca- pe- re non *|* * * po- te-|rant, qui-|a quem coe- li|ca- pe- re no|po- te- rant, non|
 (eB e4) d2 | e2 c4 B2 | A2 G2 A2 B2- | B2 B2 (e3 d | c4 B2 e2- | e2 d2 c2 B2 | c4 z4 | z2 e4 d2 | %46
w: po\- * * te-|rant tu- o|gre- mi- o con\-|* tu- li\- *|* sti, tu\-|* o gre- mi-|o|con- tu-|
 (cB B4 A2) | B4 z4 | z2 e4 dc | d2) c2 B2 =A2 | (B3 A/G/ F4) | B6 G2 | G2 F2 E2 B2- | B2 A2 G4 | %54
w: li\- * * *|sti,|tu\- * *|* o gre- mi-|o, * * *|tu- o|gre- mi- o con\-|* tu- li-|
 F4 z4 | z2 e4 d2 | (cB B4 A2) | B2 (FG ABcd |[M:2/2][K:treble-8] e2 E2 (A3 G | F4) G2 A2- | %60
w: sti,|con- tu-|li\- * * *|sti, con\- * * * * *|* tu- li\- *|* sti, con\-|
 A2 B2 c2 B2) | c2 A4 G2 | c8 | B8 |] %64
w: * tu- li\- *|sti, con- tu-|li-|sti.|
V:4
 z8 | z8 | z8 | z8 | z8 | z8 |[M:4/4] E,8 | B,,4 E,4- | E,2 E,2 E,2 B,,2 | C,4 B,,4 | D,2 E,4 D,2 | %11
w: ||||||San-|cta et|* im- ma- cu-|la- ta|vir- gi- ni-|
 E,4 z4 | F,4 F,2 F,2 | (G,3 F, E,2) D,2 | C,2 E,3 E, D,2 | C,2 C,2 B,,2 B,2- | B,B, A,2 G,4 | %17
w: tas,|qui- bus te|lau- * * di-|bus ef- fe- ram|ne- sci- o, ef\-|* fe- ram ne-|
 G,4 (A,3 B, | C4) z4 | z2 C3 C B,2 | A,2 A,2 G,2 E,2 | E,2 E,2 F,4- | F,2 F,2 E,4 | %23
w: sci o, *||ef- fe- ram|ne- sci- o, qui-|bus te lau\-|* di- bus,|
 z2 E,2 G,2 G,2 | (A,3 G, F,2) A,2 | (E,3 F, G,4) | z8 | z4 z2 E,2- | E,E, D,2 C,2 C,2 | %29
w: qui- bus te|lau\- * * di-|bus, * *||ef\-|* fe- ram ne- sci-|
 B,,4 z2 E,2 | E,2 F,2 G,2 G,2 | A,3 A, E,4 | z4 z2 E,2 | E,2 F,2 G,2 G,2 | A,3 A, G,4 | z4 B,4 | %36
w: o qui-|a quem coe- li|ca- pe- re,|qui-|a quem coe- li|ca- pe- re|non|
 G,2 A,2 B,4 | z4 z2 B,2 | G,2 A,2 B,4 | E,4 G,4 | A,2 B,2 F,2 (E,F, | G,A, B,2 E,4) | %42
w: po- te- rant,|non|po- te- rant|tu- o|gre- mi- o con\- *||
 F,4 (G,3 A,) | B,4 z4 | z2 C,4 D,2 | E,4 F,4 | E,4 z4 | z8 | z4 B,4- | B,2 A,2 G,2 F,2 | G,4 z4 | %51
w: tu- li\- *|sti,|tu- o|gre- mi-|o,||tu\-|* o gre- mi-|o,|
 z4 E,4- | E,2 D,2 C,2 B,,2 | C,8 | z2 A,4 G,2 | F,2 E,2 F,4 | E,2 D,2 C,4 | B,,4 z4 | %58
w: tu\-|* o gre- mi-|o,|tu- o|gre- mi- o|con- tu- li-|sti,|
[M:2/2] E,4 A,,4 | B,,4 E,2 A,,2- | A,,2 G,,2 A,,2 E,2 | A,,2 (A,,B,, C,D, E,2) | A,,4 A,,4 | %63
w: con- tu-|li- sti, tu\-|* o gre- mi-|o con\- * * * *|tu- li-|
 E,8 |] %64
w: sti|

